X: 3
T: The Reel Of Mullinavat
R: reel
M: 4/4
L: 1/8
K: Emin
ef|gfed BAGF|GBAG ~E3F|GEB,E GABd|eB{d}BA B2ef|gfed edBc|BAGF ~E2EF|G2GF GABA |(3Bcd ed e2 :||ef|geBe gabg |afdf afdf |geBe ga(3bag |afdf gee2|geBe gabg |afde fga>z |bg (3agf gfed |Bgfd e2 ||


Tune 1339	Setting 14688

